X: 22849
T: Lark In The Morning, The
R: jig
M: 6/8
K: Dmajor
~A3 AdB|AFA D2 D|daf g{a}ge|fdB BAF|
~A3 AdB|AFA D2 f|g{a}ge fed|edB BAF:|
Adf ~a3|abf a2 z|Adf a2 f|gfe fdB|
Adf ~a3|abf a2 f|g{a}ge fed|edB BAF:|

